_includes/icons/color-train.svg

<svg fill="#666" height="50" viewBox="0 0 48 48" width="50" xmlns="http://www.w3.org/2000/svg"><path d="m14.285156 45.003906 4.175782-7.519531-1.746094-.96875-4.714844 8.488281z" fill="#607d8b"/><path d="m33.714844 45.003906-4.175781-7.519531 1.746093-.96875 4.714844 8.488281z" fill="#607d8b"/><path d="m38 38v-26.5c0-3.589844-2.910156-4.5-6.5-4.5h-15c-3.589844 0-6.5.910156-6.5 4.5v26.5z" fill="#4caf50"/><path d="m24 3c-2.207031 0-4 1.792969-4 4s1.792969 4 4 4 4-1.792969 4-4-1.792969-4-4-4z" fill="#388e3c"/><path d="m26 7c0 1.105469-.894531 2-2 2s-2-.894531-2-2 .894531-2 2-2 2 .894531 2 2z" fill="#ffeb3b"/><g fill="#37474f"><path d="m38 38s0 2-2 2-22 0-24 0-2-2-2-2v-7h28z"/><path d="m14 30c1.105469 0 2 .894531 2 2s-.894531 2-2 2-2-.894531-2-2 .894531-2 2-2m0-2c-2.207031 0-4 1.792969-4 4s1.792969 4 4 4 4-1.792969 4-4-1.792969-4-4-4z"/><path d="m34 30c1.105469 0 2 .894531 2 2s-.894531 2-2 2-2-.894531-2-2 .894531-2 2-2m0-2c-2.207031 0-4 1.792969-4 4s1.792969 4 4 4 4-1.792969 4-4-1.792969-4-4-4z"/></g><path d="m34.5 12h-9.5v9h9.5c.828125 0 1.5-.671875 1.5-1.5v-6c0-.828125-.671875-1.5-1.5-1.5z" fill="#0b420d"/><path d="m23 12h-9.5c-.828125 0-1.5.671875-1.5 1.5v6c0 .828125.671875 1.5 1.5 1.5h9.5z" fill="#0b420d"/><g fill="#c5cae9"><path d="m16 32c0 1.105469-.894531 2-2 2s-2-.894531-2-2 .894531-2 2-2 2 .894531 2 2z"/><path d="m36 32c0 1.105469-.894531 2-2 2s-2-.894531-2-2 .894531-2 2-2 2 .894531 2 2z"/></g></svg>

<svg xmlns="http://www.w3.org/2000/svg" viewBox="0 0 48 48" width="50" height="50" fill="#666"><path d="M 14.285156 45.003906 L 18.460938 37.484375 L 16.714844 36.515625 L 12 45.003906 Z" fill="#607d8b"/><path d="M 33.714844 45.003906 L 29.539063 37.484375 L 31.285156 36.515625 L 36 45.003906 Z" fill="#607d8b"/><path d="M 38 38 L 38 11.5 C 38 7.910156 35.089844 7 31.5 7 L 16.5 7 C 12.910156 7 10 7.910156 10 11.5 L 10 38 Z" fill="#4caf50"/><path d="M 24 3 C 21.792969 3 20 4.792969 20 7 C 20 9.207031 21.792969 11 24 11 C 26.207031 11 28 9.207031 28 7 C 28 4.792969 26.207031 3 24 3 Z" fill="#388e3c"/><path d="M 26 7 C 26 8.105469 25.105469 9 24 9 C 22.894531 9 22 8.105469 22 7 C 22 5.894531 22.894531 5 24 5 C 25.105469 5 26 5.894531 26 7 Z" fill="#ffeb3b"/><path d="M 38 38 C 38 38 38 40 36 40 C 34 40 14 40 12 40 C 10 40 10 38 10 38 L 10 31 L 38 31 Z" fill="#37474f"/><path d="M 14 30 C 15.105469 30 16 30.894531 16 32 C 16 33.105469 15.105469 34 14 34 C 12.894531 34 12 33.105469 12 32 C 12 30.894531 12.894531 30 14 30 M 14 28 C 11.792969 28 10 29.792969 10 32 C 10 34.207031 11.792969 36 14 36 C 16.207031 36 18 34.207031 18 32 C 18 29.792969 16.207031 28 14 28 Z" fill="#37474f"/><path d="M 34 30 C 35.105469 30 36 30.894531 36 32 C 36 33.105469 35.105469 34 34 34 C 32.894531 34 32 33.105469 32 32 C 32 30.894531 32.894531 30 34 30 M 34 28 C 31.792969 28 30 29.792969 30 32 C 30 34.207031 31.792969 36 34 36 C 36.207031 36 38 34.207031 38 32 C 38 29.792969 36.207031 28 34 28 Z" fill="#37474f"/><path d="M 34.5 12 L 25 12 L 25 21 L 34.5 21 C 35.328125 21 36 20.328125 36 19.5 L 36 13.5 C 36 12.671875 35.328125 12 34.5 12 Z" fill="#0b420d"/><path d="M 23 12 L 13.5 12 C 12.671875 12 12 12.671875 12 13.5 L 12 19.5 C 12 20.328125 12.671875 21 13.5 21 L 23 21 Z" fill="#0b420d"/><path d="M 16 32 C 16 33.105469 15.105469 34 14 34 C 12.894531 34 12 33.105469 12 32 C 12 30.894531 12.894531 30 14 30 C 15.105469 30 16 30.894531 16 32 Z" fill="#c5cae9"/><path d="M 36 32 C 36 33.105469 35.105469 34 34 34 C 32.894531 34 32 33.105469 32 32 C 32 30.894531 32.894531 30 34 30 C 35.105469 30 36 30.894531 36 32 Z" fill="#c5cae9"/></svg>
